X: 2
T: Tom Billy's
R: jig
M: 6/8
L: 1/8
K: Amix
|:a3 ece|edB BAA|eaa e3|edB Ace|
a3 ece|edB BAA|GBd ged|1 fdB Ace:|2 fdB A2f||
|:g3 a3|bag fed|fg/a/f g2e|fdB def|
|1 g3 a3|bge gab|age dBG| Ac/B/A Ace:|
|2 g3 a3|bge gab|age dBe| Ac/B/A A3||
|:c3 edd|edB dBA|Ac/B/A cBA|A3 ecA|
c3 edd|ede gab|age dBe|1 Ac/B/A A3:|2 Ac/B/A Ace||


Tune 816	Setting 26810

